X:222
T:The Ice Storm Hornpipe
R:hp
C:Bruce Osborne - Jan. 2003
Z:abc by bosborne@kos.net
M:4/4
L:1/8
K:Bb
FE|DB,A,B, DB,DF|BFBc dBFB|AFAc ecAc|Bcdg f2 FE|\
DB,A,B, DB,DF|BFBc dBFB|AFAc ecAc|BABc B2:|
|:DE|FBAB dBAB|fBgB fBAB|cF=EF AF=EF|BFBc d2 DE|\
FBAB dBAB|fBgB fBAB|cF=EF AF=EF|BFdc B2:|
